X: 1
T: The Pooca
M: 6/8
L: 1/8
R: jig
D: Peter Carberry, Angelina Carberry &amp; John Blake - Memories From Holla
K: Gmaj
dBA ~B3|GBd gab|age dBG|BAG Age|
dBA ~B3|GBd gab|age dBA|BGG Gge:|
|:ded deg|aba aga|bge edB|BAG Age|
dBA ~B3|GBd gab|age dBA|BGG Gge:|
Banjo is going |GBd gab| in bar 2. Box is holding on that top G |GBd g3|.
